X:1
T:Title
%%score ( 1 2 ) ( 3 4 )
L:1/8
Q:1/4=90
M:4/4
K:Ab
V:1 treble nm="Strings 1, Soprano"
V:2 treble 
V:3 bass nm="Strings 1, Bass"
V:4 bass 
V:1
 [CE]2 [CE]>[DF] [CE]2 [Ec]>[Fd] | [Ec]2 [EB]>[EB] [EB]4 | [DE]2 [DE]>[DF] [DE]2 [DB]>[Ec] | %3
w: 1.~Dear~ friends,~ we~ have~ pre cious~|tid ings~ of~ old,~|Would~ you~ re ceive~ great er~|
 [DB]2 [CA]>[DA] [EA]4 | [CE]2 [CE]>[DF] [CE]2 [Ec]>[EB] | [EA]2 [EB]>[_Gc] [Fd]4 | %6
w: rich es~ than~ gold?~|Hear~ it,~ all~ peo ple,~ ye~|wealth y~ and~ poor,~|
 [Ee]2 [Ee]>[Ee] [Ae][Gd][Ac][FB] | [EA]2 [EG]>[EG] [EA]2[Q:1/4=90] [Ac]>[Bd][Q:1/4=12] | %8
w: Je sus~ will~ give~ * you~ His~|peace~ ev er more.~ * *|
 [ce]2 [Ac]2 [ce]2 [Bd]>[ce] | [Ac]2 [EA]2 [Ac]2 [EB]>[EA] | [EG]2 [Ge]>[Ae] [Be]2 E[DE] | %11
w: |||
 [CA]>[DG] [DA][EB] [Ac]2 [Ac]>[Bd] | [ce]2 [Ac]2 [ce]2 [Bd]>[ce] | [Ac]2 [EA]2 [Ac]2 [Ad]>[Af] | %14
w: |||
 [Ae]2 [Ae]>[Ae] ed[Ac][EB] | [EA]2 [EG]2 [EA]4 |] %16
w: ||
V:2
 x8 | x8 | x8 | x8 | x8 | x8 | x8 | x8 | x8 | x8 | x8 | x8 | x8 | x8 | z4 A2 z2 | x8 |] %16
V:3
 [A,,A,]2 [A,,A,]>[A,,A,] [A,,A,]2 [A,,A,]>[A,,A,] | [E,A,]2 [E,G,]>[E,G,] [E,G,]4 | %2
 [E,G,]2 [E,G,]>[E,A,] [E,B,]2 E,>E, | [A,,A,]2 [A,,A,]>[A,,B,] [A,,C]4 | %4
 [A,,A,]2 [A,,A,]>[A,,A,] [A,,A,]2 [A,,A,]>[B,,G,] | [C,A,]2 [B,,G,]>[A,,A,] [D,A,]4 | %6
 [A,C]2 [A,C]>[A,C] [A,C][E,F][C,E][D,D] | [E,C]2 [E,B,]>[E,B,] [A,,A,C]2 [A,E]2 | %8
 [A,E]2 [A,E]2 [A,E]2 z2 | z2 [A,C]2 [A,E]2 [E,D]>[E,C] | %10
 [E,B,]2 [E,B,]>[E,C] [E,D]2 [C,A,][B,,G,] | [A,,A,]>[A,,A,] [A,,C][A,,D] [A,,A,E]2 [A,E]2 | %12
 [A,E]2 [A,E]2 [A,E]2 z2 | z2 [A,C]2 [A,E]2 [D,F]>[D,D] | [E,C]2 [E,C]>[E,C] CF[E,E][E,D] | %15
 [E,C]2 [E,B,]2 [A,,A,C]4 |] %16
V:4
 x8 | x8 | x8 | x8 | x8 | x8 | x8 | x8 | x8 | x8 | x8 | x8 | x8 | x8 | z4 E,2 z2 | x8 |] %16

